frontend/public/svg/interface/tick.svg

<svg width="130" height="90" viewBox="0 0 130 90" fill="none" xmlns="http://www.w3.org/2000/svg">
<path d="M34.7162 81.5027C36.3213 79.9761 37.2031 79.2039 38.0103 78.3599C63.8892 51.3046 92.2309 26.9469 120.74 2.77407C121.817 1.86111 122.921 0.696462 124.196 0.3701C125.733 -0.0238104 128.241 -0.282655 128.928 0.552804C129.852 1.67765 130.015 4.12286 129.452 5.60109C128.782 7.35947 127.15 8.86542 125.669 10.1822C116.833 18.0391 107.749 25.6258 99.0678 33.6462C80.9213 50.4165 62.8904 67.3116 44.9751 84.3312C37.125 91.7736 34.1038 92.075 26.8803 84.1228C22.1253 78.8861 7.77509 61.237 3.38035 55.6767C2.75974 54.8123 2.20692 53.9011 1.72689 52.9513C0.732118 51.1915 0.0876263 49.254 2.05727 47.8895C4.25215 46.3708 5.81043 47.9557 7.11073 49.606C8.42738 51.2769 9.55004 53.1127 10.9598 54.6962C15.336 59.6122 29.9896 76.32 34.7162 81.5027Z" fill="black"/>
</svg>

<svg xmlns="http://www.w3.org/2000/svg" width="130" height="90" fill="none" viewBox="0 0 130 90"><path fill="#000" d="M34.716 81.503c1.605-1.527 2.487-2.3 3.294-3.143 25.88-27.055 54.22-51.413 82.73-75.586 1.077-.913 2.181-2.078 3.456-2.404 1.537-.394 4.045-.653 4.732.183.924 1.125 1.087 3.57.524 5.048-.67 1.758-2.302 3.264-3.783 4.581-8.836 7.857-17.92 15.444-26.601 23.464a5387 5387 0 0 0-54.093 50.685c-7.85 7.443-10.871 7.744-18.095-.208-4.755-5.237-19.105-22.886-23.5-28.446a20.6 20.6 0 0 1-1.653-2.726c-.995-1.76-1.64-3.697.33-5.062 2.195-1.518 3.753.067 5.054 1.717 1.316 1.67 2.439 3.507 3.849 5.09 4.376 4.916 19.03 21.624 23.756 26.807"/></svg>
